X:3006
T:Cranbrook
T:While Shepherds Watched
R:Reel
C:Trad.
O:England
Z:Paul Hardy's Xmas Tunebook 2019 (see www.paulhardy.net). Creative Commons cc by-nc-sa licenced.
M:4/4
L:1/8
Q:1/4=120
K:C
"C"c2 G3/2A/2 GF ED|C4-C3 G|"Am"cBAG "F"AGFE|"G"E4 D4|
"G"G2 G3/2A/2 BG AB|"C"c8|"D7"d2 d3/2c/2Bd AB|"G"G4-G3 G|
"C"c3/2c/2 cG c3 d|e>e ed e3 e|"F"d2 c2 "G7"c2 B2|"C"c8|]
W:While shepherds watched their flocks by night,All seated on the ground,
W:The angel of the Lord came down,The angel of the Lord came down,
W:And glory shone around, And glory shone around, And glory shone around.

